X: 21
%
U:~=!turn!
T: The Back of the Change House
C:
O:Scotland
B:Keith Norman MacDonald : "The Skye collection of the best reels & strathspeys extant" : 1887
Z:Ralph Palmer
R:Reel
M:C|
L:1/8
K:D
B !segno!|| (AF)Af edBd | AFAB {/c}de{/c}dB | (AF)Af (ed)Bg | f/2g/2a e>c {/c}d2d :|
g | Tfe{/c}df {gf}edBg | Tfefg (ab)ag | fd{/f}gf {gf}edBg | (f/2g/2a) e>c {/c}d2 (dg)|
Tfe{/c}df {/f}edBg | (fe)fg abag | fd{/f}gf {gf}edBg | af{/f}ge {/c}de{/c}dB !segno!|]
W:Sometimes played as Strathspey
%I don't trust the comments in 106, 107, and 109. rp


